X:5685
T:Gan ainm
R:Reel
S:Billy McComiskey
H:
N:
D:Making the Rounds
Z:Adrian Scahill
M:2/2
L:1/8
K:D
ABAG EGG2|Addc d2af|gefd ceAd|=cdef ge^ce|\
dcAG EGG2|Addc d2af|gefd ceAd|=cAGE ADD2:||\
d2af g2fg|af (3gfe fdAB|=cdef gefg|afge (3fed ec|\
dAaf g2fg|afge fdaf|gefd ceAd|=cAGE ADD2:||
